images/334142.svg

<?xml version="1.0" encoding="UTF-8"?>
<svg xmlns="http://www.w3.org/2000/svg" xmlns:xlink="http://www.w3.org/1999/xlink" width="300pt" height="300pt" viewBox="0 0 300 300" version="1.1">
<defs>
<g>
<symbol overflow="visible" id="glyph0-0">
<path style="stroke:none;" d="M 0.640625 2.296875 L 0.640625 -9.171875 L 7.140625 -9.171875 L 7.140625 2.296875 Z M 1.375 1.578125 L 6.421875 1.578125 L 6.421875 -8.4375 L 1.375 -8.4375 Z M 1.375 1.578125 "/>
</symbol>
<symbol overflow="visible" id="glyph0-1">
<path style="stroke:none;" d="M 1.28125 -9.484375 L 3 -9.484375 L 7.203125 -1.546875 L 7.203125 -9.484375 L 8.453125 -9.484375 L 8.453125 0 L 6.71875 0 L 2.515625 -7.921875 L 2.515625 0 L 1.28125 0 Z M 1.28125 -9.484375 "/>
</symbol>
<symbol overflow="visible" id="glyph0-2">
<path style="stroke:none;" d="M 1.28125 -9.484375 L 2.5625 -9.484375 L 2.5625 -5.59375 L 7.21875 -5.59375 L 7.21875 -9.484375 L 8.5 -9.484375 L 8.5 0 L 7.21875 0 L 7.21875 -4.515625 L 2.5625 -4.515625 L 2.5625 0 L 1.28125 0 Z M 1.28125 -9.484375 "/>
</symbol>
</g>
</defs>
<g id="surface40657">
<rect x="0" y="0" width="300" height="300" style="fill:rgb(100%,100%,100%);fill-opacity:1;stroke:none;"/>
<path style="fill:none;stroke-width:1.2;stroke-linecap:butt;stroke-linejoin:miter;stroke:rgb(0%,0%,0%);stroke-opacity:1;stroke-miterlimit:10;" d="M 118.792969 100.464844 L 84.457031 102.949219 "/>
<path style="fill:none;stroke-width:1.2;stroke-linecap:butt;stroke-linejoin:miter;stroke:rgb(0%,0%,0%);stroke-opacity:1;stroke-miterlimit:10;" d="M 115.945312 108.792969 L 88.472656 110.78125 "/>
<path style="fill:none;stroke-width:1.2;stroke-linecap:butt;stroke-linejoin:miter;stroke:rgb(0%,0%,0%);stroke-opacity:1;stroke-miterlimit:10;" d="M 138.113281 128.957031 L 118.792969 100.464844 "/>
<path style="fill:none;stroke-width:1.2;stroke-linecap:butt;stroke-linejoin:miter;stroke:rgb(0%,0%,0%);stroke-opacity:1;stroke-miterlimit:10;" d="M 84.457031 102.949219 L 69.4375 133.929688 "/>
<path style="fill:none;stroke-width:1.2;stroke-linecap:butt;stroke-linejoin:miter;stroke:rgb(0%,0%,0%);stroke-opacity:1;stroke-miterlimit:10;" d="M 69.4375 133.929688 L 88.757812 162.421875 "/>
<path style="fill:none;stroke-width:1.2;stroke-linecap:butt;stroke-linejoin:miter;stroke:rgb(0%,0%,0%);stroke-opacity:1;stroke-miterlimit:10;" d="M 64.667969 141.324219 L 80.121094 164.121094 "/>
<path style="fill:none;stroke-width:1.2;stroke-linecap:butt;stroke-linejoin:miter;stroke:rgb(0%,0%,0%);stroke-opacity:1;stroke-miterlimit:10;" d="M 36.367188 143.496094 L 69.4375 133.929688 "/>
<path style="fill:none;stroke-width:1.2;stroke-linecap:butt;stroke-linejoin:miter;stroke:rgb(0%,0%,0%);stroke-opacity:1;stroke-miterlimit:10;" d="M 88.757812 162.421875 L 123.097656 159.9375 "/>
<path style="fill:none;stroke-width:1.2;stroke-linecap:butt;stroke-linejoin:miter;stroke:rgb(0%,0%,0%);stroke-opacity:1;stroke-miterlimit:10;" d="M 88.757812 162.421875 L 78.195312 176.011719 "/>
<path style="fill:none;stroke-width:1.2;stroke-linecap:butt;stroke-linejoin:miter;stroke:rgb(0%,0%,100%);stroke-opacity:1;stroke-miterlimit:10;" d="M 78.195312 176.011719 L 67.628906 189.601562 "/>
<path style="fill:none;stroke-width:1.2;stroke-linecap:butt;stroke-linejoin:miter;stroke:rgb(0%,0%,0%);stroke-opacity:1;stroke-miterlimit:10;" d="M 123.097656 159.9375 L 138.113281 128.957031 "/>
<path style="fill:none;stroke-width:1.2;stroke-linecap:butt;stroke-linejoin:miter;stroke:rgb(0%,0%,0%);stroke-opacity:1;stroke-miterlimit:10;" d="M 117.308594 153.308594 L 129.324219 128.523438 "/>
<path style="fill:none;stroke-width:1.2;stroke-linecap:butt;stroke-linejoin:miter;stroke:rgb(0%,0%,0%);stroke-opacity:1;stroke-miterlimit:10;" d="M 138.113281 128.957031 L 155.28125 127.714844 "/>
<path style="fill:none;stroke-width:1.2;stroke-linecap:butt;stroke-linejoin:miter;stroke:rgb(0%,0%,100%);stroke-opacity:1;stroke-miterlimit:10;" d="M 155.28125 127.714844 L 172.453125 126.472656 "/>
<path style="fill:none;stroke-width:1.2;stroke-linecap:butt;stroke-linejoin:miter;stroke:rgb(0%,0%,100%);stroke-opacity:1;stroke-miterlimit:10;" d="M 172.453125 126.472656 L 191.773438 154.96875 "/>
<path style=" stroke:none;fill-rule:nonzero;fill:rgb(100%,100%,100%);fill-opacity:1;" d="M 162.453125 118.472656 L 182.453125 118.472656 L 182.453125 134.472656 L 162.453125 134.472656 Z M 162.453125 118.472656 "/>
<g style="fill:rgb(0%,0%,100%);fill-opacity:1;">
  <use xlink:href="#glyph0-1" x="162.453125" y="130.848633"/>
  <use xlink:href="#glyph0-2" x="172.422852" y="130.848633"/>
</g>
<path style="fill:none;stroke-width:1.2;stroke-linecap:butt;stroke-linejoin:miter;stroke:rgb(0%,0%,100%);stroke-opacity:1;stroke-miterlimit:10;" d="M 191.773438 154.96875 L 208.941406 153.726562 "/>
<path style="fill:none;stroke-width:1.2;stroke-linecap:butt;stroke-linejoin:miter;stroke:rgb(0%,0%,0%);stroke-opacity:1;stroke-miterlimit:10;" d="M 208.941406 153.726562 L 226.109375 152.484375 "/>
<path style="fill:none;stroke-width:1.2;stroke-linecap:butt;stroke-linejoin:miter;stroke:rgb(0%,0%,100%);stroke-opacity:1;stroke-miterlimit:10;" d="M 195.789062 162.800781 L 209.523438 161.804688 "/>
<path style="fill:none;stroke-width:1.2;stroke-linecap:butt;stroke-linejoin:miter;stroke:rgb(0%,0%,0%);stroke-opacity:1;stroke-miterlimit:10;" d="M 209.523438 161.804688 L 223.261719 160.8125 "/>
<path style=" stroke:none;fill-rule:nonzero;fill:rgb(100%,100%,100%);fill-opacity:1;" d="M 186.773438 146.96875 L 196.773438 146.96875 L 196.773438 162.96875 L 186.773438 162.96875 Z M 186.773438 146.96875 "/>
<g style="fill:rgb(0%,0%,100%);fill-opacity:1;">
  <use xlink:href="#glyph0-1" x="186.773438" y="159.344727"/>
</g>
<path style="fill:none;stroke-width:1.2;stroke-linecap:butt;stroke-linejoin:miter;stroke:rgb(0%,0%,0%);stroke-opacity:1;stroke-miterlimit:10;" d="M 226.109375 152.484375 L 245.429688 180.980469 "/>
<path style="fill:none;stroke-width:1.2;stroke-linecap:butt;stroke-linejoin:miter;stroke:rgb(0%,0%,0%);stroke-opacity:1;stroke-miterlimit:10;" d="M 226.109375 152.484375 L 241.125 121.503906 "/>
<path style="fill:none;stroke-width:1.2;stroke-linecap:butt;stroke-linejoin:miter;stroke:rgb(0%,0%,0%);stroke-opacity:1;stroke-miterlimit:10;" d="M 245.429688 180.980469 L 255.089844 195.226562 "/>
<path style="fill:none;stroke-width:1.2;stroke-linecap:butt;stroke-linejoin:miter;stroke:rgb(0%,0%,100%);stroke-opacity:1;stroke-miterlimit:10;" d="M 255.089844 195.226562 L 264.75 209.472656 "/>
<path style="fill:none;stroke-width:1.2;stroke-linecap:butt;stroke-linejoin:miter;stroke:rgb(0%,0%,0%);stroke-opacity:1;stroke-miterlimit:10;" d="M 240.65625 188.375 L 248.386719 199.773438 "/>
<path style="fill:none;stroke-width:1.2;stroke-linecap:butt;stroke-linejoin:miter;stroke:rgb(0%,0%,100%);stroke-opacity:1;stroke-miterlimit:10;" d="M 248.386719 199.773438 L 256.113281 211.171875 "/>
<path style="fill:none;stroke-width:1.2;stroke-linecap:butt;stroke-linejoin:miter;stroke:rgb(0%,0%,0%);stroke-opacity:1;stroke-miterlimit:10;" d="M 254.066406 179.28125 L 261.792969 190.679688 "/>
<path style="fill:none;stroke-width:1.2;stroke-linecap:butt;stroke-linejoin:miter;stroke:rgb(0%,0%,100%);stroke-opacity:1;stroke-miterlimit:10;" d="M 261.792969 190.679688 L 269.523438 202.078125 "/>
<path style=" stroke:none;fill-rule:nonzero;fill:rgb(100%,100%,100%);fill-opacity:1;" d="M 259.75 201.472656 L 269.75 201.472656 L 269.75 217.472656 L 259.75 217.472656 Z M 259.75 201.472656 "/>
<g style="fill:rgb(0%,0%,100%);fill-opacity:1;">
  <use xlink:href="#glyph0-1" x="259.75" y="213.848633"/>
</g>
<path style="fill:none;stroke-width:1.2;stroke-linecap:butt;stroke-linejoin:miter;stroke:rgb(0%,0%,0%);stroke-opacity:1;stroke-miterlimit:10;" d="M 241.125 121.503906 L 248.632812 106.015625 "/>
<path style="fill:none;stroke-width:1.2;stroke-linecap:butt;stroke-linejoin:miter;stroke:rgb(0%,0%,100%);stroke-opacity:1;stroke-miterlimit:10;" d="M 248.632812 106.015625 L 256.144531 90.527344 "/>
<path style="fill:none;stroke-width:1.2;stroke-linecap:butt;stroke-linejoin:miter;stroke:rgb(0%,0%,0%);stroke-opacity:1;stroke-miterlimit:10;" d="M 249.917969 121.941406 L 255.925781 109.550781 "/>
<path style="fill:none;stroke-width:1.2;stroke-linecap:butt;stroke-linejoin:miter;stroke:rgb(0%,0%,100%);stroke-opacity:1;stroke-miterlimit:10;" d="M 255.925781 109.550781 L 261.929688 97.15625 "/>
<path style="fill:none;stroke-width:1.2;stroke-linecap:butt;stroke-linejoin:miter;stroke:rgb(0%,0%,0%);stroke-opacity:1;stroke-miterlimit:10;" d="M 235.339844 114.875 L 241.34375 102.480469 "/>
<path style="fill:none;stroke-width:1.2;stroke-linecap:butt;stroke-linejoin:miter;stroke:rgb(0%,0%,100%);stroke-opacity:1;stroke-miterlimit:10;" d="M 241.34375 102.480469 L 247.351562 90.089844 "/>
<path style=" stroke:none;fill-rule:nonzero;fill:rgb(100%,100%,100%);fill-opacity:1;" d="M 251.144531 82.527344 L 261.144531 82.527344 L 261.144531 98.527344 L 251.144531 98.527344 Z M 251.144531 82.527344 "/>
<g style="fill:rgb(0%,0%,100%);fill-opacity:1;">
  <use xlink:href="#glyph0-1" x="251.144531" y="94.90332"/>
</g>
<path style="fill:none;stroke-width:1.2;stroke-linecap:butt;stroke-linejoin:miter;stroke:rgb(0%,0%,100%);stroke-opacity:1;stroke-miterlimit:10;" d="M 67.628906 189.601562 L 35.25 177.90625 "/>
<path style=" stroke:none;fill-rule:nonzero;fill:rgb(100%,100%,100%);fill-opacity:1;" d="M 57.628906 181.601562 L 77.628906 181.601562 L 77.628906 197.601562 L 57.628906 197.601562 Z M 57.628906 181.601562 "/>
<g style="fill:rgb(0%,0%,100%);fill-opacity:1;">
  <use xlink:href="#glyph0-1" x="57.628906" y="193.977539"/>
  <use xlink:href="#glyph0-2" x="67.598633" y="193.977539"/>
</g>
<path style="fill:none;stroke-width:1.2;stroke-linecap:butt;stroke-linejoin:miter;stroke:rgb(0%,0%,100%);stroke-opacity:1;stroke-miterlimit:10;" d="M 35.25 177.90625 L 35.808594 160.703125 "/>
<path style="fill:none;stroke-width:1.2;stroke-linecap:butt;stroke-linejoin:miter;stroke:rgb(0%,0%,0%);stroke-opacity:1;stroke-miterlimit:10;" d="M 35.808594 160.703125 L 36.367188 143.496094 "/>
<path style="fill:none;stroke-width:1.2;stroke-linecap:butt;stroke-linejoin:miter;stroke:rgb(0%,0%,100%);stroke-opacity:1;stroke-miterlimit:10;" d="M 43.457031 174.730469 L 43.90625 160.964844 "/>
<path style="fill:none;stroke-width:1.2;stroke-linecap:butt;stroke-linejoin:miter;stroke:rgb(0%,0%,0%);stroke-opacity:1;stroke-miterlimit:10;" d="M 43.90625 160.964844 L 44.351562 147.203125 "/>
<path style=" stroke:none;fill-rule:nonzero;fill:rgb(100%,100%,100%);fill-opacity:1;" d="M 30.25 169.90625 L 40.25 169.90625 L 40.25 185.90625 L 30.25 185.90625 Z M 30.25 169.90625 "/>
<g style="fill:rgb(0%,0%,100%);fill-opacity:1;">
  <use xlink:href="#glyph0-1" x="30.25" y="182.282227"/>
</g>
</g>
</svg>

<svg xmlns="http://www.w3.org/2000/svg" xmlns:xlink="http://www.w3.org/1999/xlink" width="300pt" height="300pt" viewBox="0 0 300 300"><defs><symbol overflow="visible"><path d="M.64 2.297v-11.47h6.5v11.47zm.735-.72h5.047V-8.436H1.375zm0 0"/></symbol><symbol overflow="visible" id="a"><path d="M1.28-9.484H3l4.203 7.937v-7.937h1.25V0H6.72L2.515-7.922V0H1.28zm0 0"/></symbol><symbol overflow="visible" id="b"><path d="M1.28-9.484h1.282v3.89H7.22v-3.89H8.5V0H7.22v-4.516H2.562V0H1.28zm0 0"/></symbol></defs><g><path fill="#fff" d="M0 0h300v300H0z"/><path d="M118.793 100.465l-34.336 2.484M115.945 108.793l-27.472 1.988M138.113 128.957l-19.32-28.492M84.457 102.95l-15.02 30.98M69.438 133.93l19.32 28.492M64.668 141.324L80.12 164.12M36.367 143.496l33.07-9.566M88.758 162.422l34.34-2.484M88.758 162.422l-10.563 13.59" stroke-width="1.2" stroke="#000" stroke-miterlimit="10" fill="none"/><path d="M78.195 176.012l-10.566 13.59" stroke-width="1.2" stroke="#00f" stroke-miterlimit="10" fill="none"/><path d="M123.098 159.938l15.015-30.98M117.31 153.31l12.014-24.787M138.113 128.957l17.168-1.242" stroke-width="1.2" stroke="#000" stroke-miterlimit="10" fill="none"/><path d="M155.28 127.715l17.173-1.242M172.453 126.473l19.32 28.496" stroke-width="1.2" stroke="#00f" stroke-miterlimit="10" fill="none"/><path d="M162.453 118.473h20v16h-20zm0 0" fill="#fff"/><g fill="#00f"><use xlink:href="#a" x="162.453" y="130.849"/><use xlink:href="#b" x="172.423" y="130.849"/></g><path d="M191.773 154.97l17.168-1.243" stroke-width="1.2" stroke="#00f" stroke-miterlimit="10" fill="none"/><path d="M208.94 153.727l17.17-1.243" stroke-width="1.2" stroke="#000" stroke-miterlimit="10" fill="none"/><path d="M195.79 162.8l13.733-.995" stroke-width="1.2" stroke="#00f" stroke-miterlimit="10" fill="none"/><path d="M209.523 161.805l13.74-.993" stroke-width="1.2" stroke="#000" stroke-miterlimit="10" fill="none"/><path d="M186.773 146.97h10v16h-10zm0 0" fill="#fff"/><use xlink:href="#a" x="186.773" y="159.345" fill="#00f"/><path d="M226.11 152.484l19.32 28.496M226.11 152.484l15.015-30.98M245.43 180.98l9.66 14.247" stroke-width="1.2" stroke="#000" stroke-miterlimit="10" fill="none"/><path d="M255.09 195.227l9.66 14.246" stroke-width="1.2" stroke="#00f" stroke-miterlimit="10" fill="none"/><path d="M240.656 188.375l7.73 11.398" stroke-width="1.2" stroke="#000" stroke-miterlimit="10" fill="none"/><path d="M248.387 199.773l7.726 11.4" stroke-width="1.2" stroke="#00f" stroke-miterlimit="10" fill="none"/><path d="M254.066 179.28l7.727 11.4" stroke-width="1.2" stroke="#000" stroke-miterlimit="10" fill="none"/><path d="M261.793 190.68l7.73 11.398" stroke-width="1.2" stroke="#00f" stroke-miterlimit="10" fill="none"/><path d="M259.75 201.473h10v16h-10zm0 0" fill="#fff"/><use xlink:href="#a" x="259.75" y="213.849" fill="#00f"/><path d="M241.125 121.504l7.508-15.488" stroke-width="1.2" stroke="#000" stroke-miterlimit="10" fill="none"/><path d="M248.633 106.016l7.512-15.49" stroke-width="1.2" stroke="#00f" stroke-miterlimit="10" fill="none"/><path d="M249.918 121.94l6.008-12.39" stroke-width="1.2" stroke="#000" stroke-miterlimit="10" fill="none"/><path d="M255.926 109.55l6.004-12.394" stroke-width="1.2" stroke="#00f" stroke-miterlimit="10" fill="none"/><path d="M235.34 114.875l6.004-12.395" stroke-width="1.2" stroke="#000" stroke-miterlimit="10" fill="none"/><path d="M241.344 102.48l6.008-12.39" stroke-width="1.2" stroke="#00f" stroke-miterlimit="10" fill="none"/><path d="M251.145 82.527h10v16h-10zm0 0" fill="#fff"/><use xlink:href="#a" x="251.145" y="94.903" fill="#00f"/><path d="M67.63 189.602l-32.38-11.696" stroke-width="1.2" stroke="#00f" stroke-miterlimit="10" fill="none"/><path d="M57.63 181.602h20v16h-20zm0 0" fill="#fff"/><g fill="#00f"><use xlink:href="#a" x="57.629" y="193.978"/><use xlink:href="#b" x="67.599" y="193.978"/></g><path d="M35.25 177.906l.56-17.203" stroke-width="1.2" stroke="#00f" stroke-miterlimit="10" fill="none"/><path d="M35.81 160.703l.557-17.207" stroke-width="1.2" stroke="#000" stroke-miterlimit="10" fill="none"/><path d="M43.457 174.73l.45-13.765" stroke-width="1.2" stroke="#00f" stroke-miterlimit="10" fill="none"/><path d="M43.906 160.965l.446-13.762" stroke-width="1.2" stroke="#000" stroke-miterlimit="10" fill="none"/><path d="M30.25 169.906h10v16h-10zm0 0" fill="#fff"/><use xlink:href="#a" x="30.25" y="182.282" fill="#00f"/></g></svg>
